X:1
T:Title
%%score { ( 1 4 5 ) | ( 2 3 ) }
L:1/8
Q:1/4=114
M:6/4
K:Eb
V:1 treble nm="Grand Piano"
V:4 treble 
V:5 treble 
V:2 bass 
V:3 bass 
V:1
 B,2 C2 _D2 =D2 E2 =E2 | F2 [B,DB]2 [B,EB]2 [B,FB]2 .B2 .B2 | B2 c2 _d2 =d2 e2 =e2 | %3
w: Ira~B.~Wilson * * * * *|||
 f2 [Bfb]2 [Bgb]2 [Bab]2 .D2 .D2 | [G,G]2 B,2 C2 [G,D]2 E2 F2 | [G,G]2 B,2 C2 [G,D]2 E2 F2 | %6
w: |||
 z2 E2 E2 z2 A2 A2 | z2 G2 G2 z2 A2 A2 | [G,G]2 B,2 C2 [G,D]2 E2 F2 | [G,G]2 B,2 C2 [G,D]2 E2 F2 | %10
w: ||||
 z2 E2 E2 z2 G2 G2 | D12[K:bass] | A2 A2 A2 A2 G2 F2 | A2 A2 A2 A2 G2 F2 | z2 A2 A2 z2 A2 A2 | %15
w: |||||
 z2 A2 A2[K:bass] z2[K:treble] A2 A2 | B2 B2 B2 B2 c2 d2 | e2 e2 e2 [EGe]2 [FGd]2 [EGc]2 | %18
w: |||
 z2 B2 B2 z2 =A2 A2 | [DFB]12[K:bass] | [Ee]2 [Be]2 [Be]2 [Dd]2 e2 d2 | c6 B6 | z6 .G6 | %23
w: |||||
 B12[K:bass][K:treble] | B2 B2 B2 B2 =A2 G2 | G6 F6 | z6 .[G=A]6 | %27
w: ||||
 d2- [_G=Ad-]2 [GAd-]2 [F_Ad]2 =ABcd | [Ee]2 [Be]2 [Be]2 [Dd]2 [Be]2 [Bd]2 | [Cc]6 B6 | z6 .G6 | %31
w: ||||
 E12[K:bass][K:treble] | [Ee]2 [ce]2 [ce]2 [Ee]2 d2 c2 | %33
w: ||
 [EGB]2 [DFA]2 [EG]2 [CEc]2 [C=EB]2 [CFA]2 | G6 F6[K:bass] | E12 |] %36
w: |||
V:2
 B,,2 C,2 _D,2 =D,2 E,2 =E,2 | F,2 [B,,,B,,]2 [C,,C,]2 [D,,D,]2 .B,2 .B,2 | %2
 B,2[K:treble] C2 _D2 =D2 E2 =E2 | F2[K:bass] [D,,D,]2 [E,,E,]2 [F,,F,]2 .A,2 .A,2 | %4
 z2 G,2 G,2 z2 G,2 G,2 | z2 G,2 G,2 z2 G,2 G,2 | z2 B,2 B,2 z2 E2 E2 | z2 E2 E2 z2 D2 D2 | %8
 z2 G,2 G,2 z2 G,2 G,2 | z2 G,2 G,2 z2 G,2 G,2 | z2 B,2 B,2 z2 E2 E2 | z2 A,2 A,2 z2 A,2 A,2 | %12
 z2 [B,D]2 [B,D]2 z2 [B,D]2 [B,D]2 | z2 [B,D]2 [B,D]2 z2 [B,D]2 [B,D]2 | %14
 z2[K:treble] F2 F2[K:bass] [B,,,B,,]6 | z2[K:treble] F2 F2[K:bass] z2[K:treble] F2 F2 | %16
 z2[K:treble] [EG]2 [EG]2[K:bass] z2[K:treble] [EG]2 [EG]2 | %17
 z2[K:treble] [EG]2 [EG]2[K:bass] [C,,C,]2 [D,,D,]2 [E,,E,]2 | %18
 z2[K:treble] F2 F2[K:bass] z2[K:treble] [EF]2 [EF]2 | [B,,B,]2 C,2 B,,2 A,,2 G,,2 F,,2 | %20
 z2[K:treble] [EG]2 [EG]2[K:bass] z2[K:treble] [EGB]2 [DGB]2 | z2 [CE]2 [CE]2 z2 C2 C2 | %22
 F,,2 G,,2 A,,2 z2 B,2 A,,2 | z2 [B,E]2 [B,E]2 z2 D2 D2 | %24
 z2[K:treble] [EG]2 [EG]2[K:bass] z2 [B,_D]2 [B,D]2 | z2 B,2 B,2 z2 B,2 B,2 | %26
 [G,,G,]2 [G,,G,]2 [G,,G,]2 [E,,E,]4 [E,,E,]2 | [D,,D,]2 [D,,D,]2 [D,,D,]2 .[B,,,B,,]6 | %28
 z2[K:treble] [EG]2 [EG]2[K:bass] z2[K:treble] [EG]2 [DG]2 | z2 E2 E2 z2 C2 C2 | %30
 F,,2 G,,2 A,,2 z2 B,2 =B,,2 | C,6 z6 | z2[K:treble] [EG]2 [EG]2[K:bass] z2[K:treble] F2 F2 | %33
 [B,,,B,,]2 [=B,,,=B,,]2 [C,,C,]2 [A,,A,]2 [G,,G,]2 [F,,F,]2 | z2 B,2 B,2 z2 A,2 A,2 | %35
 [E,,E,]2 [B,,G,]2 [G,,G,]2 E,,6 |] %36
V:3
 x12 | x12 | x2[K:treble] x10 | x2[K:bass] x10 | [E,,E,]6 [B,,,B,,]6 | [E,,E,]6 [B,,,B,,]6 | %6
 [E,,E,]6 [A,,A,]6 | [G,,G,]6 F,,6 | [E,,E,]6 [B,,,B,,]6 | [E,,E,]6 [B,,,B,,]6 | %10
 [E,,E,]6 [G,,G,]6 | [F,,F,]6 B,,,6 | [F,,F,]6 [C,,B,,]6 | [F,,F,]6 [B,,,B,,]6 | %14
 [F,,F,]6[K:treble][K:bass] z6 | [F,,F,]6[K:treble][K:bass] B,,,6[K:treble] | %16
 [E,,E,]6[K:treble][K:bass] [B,,,B,,]6[K:treble] | [C,,C,]6[K:treble][K:bass] z6 | %18
 [F,,F,]6[K:treble][K:bass] [F,,F,]6[K:treble] | x12 | %20
 [E,,E,]6[K:treble][K:bass] [G,,G,]6[K:treble] | [A,,A,]6 [G,,G,]6 | z6 .B,,6 | G,,6 z6 | %24
 E,,6[K:treble][K:bass] =E,,6 | F,,6 [F,,F,]6 | x12 | x12 | %28
 [E,,E,]6[K:treble][K:bass] [G,,G,]6[K:treble] | [A,,A,]6 [G,,G,]6 | z6 .B,,6 | %31
 z2 G,2 A,2 D,,2 [E,,E,]2 [D,,D,]2 | [C,,C,]6[K:treble][K:bass] [=A,,,=A,,]6[K:treble] | x12 | %34
 [B,,,B,,]6 [B,,,B,,]6 | x12 |] %36
V:4
 x12 | x12 | x12 | x12 | x12 | x12 | [G,G]6 [Cc]6 | [B,B]12 | x12 | x12 | [G,G]6 [B,B]6 | %11
 z2[K:bass] B,2 B,2 z2 B,2 B,2 | x12 | x12 | [Cc]6 [Cc]6 | [Cc]12[K:bass][K:treble] | x12 | x12 | %18
 [Dd]6 c6 | z2 C2[K:bass] B,2 A,2 G,2 F,2 | x12 | z2 A2 A2 z2 =E2 E2 | %22
 [CFA]2 [C=Ec]2 [CFc]2 z2 D2 [B,DF]2 | z2 G2 G2[K:bass] z2[K:treble] A2 A2 | x12 | %25
 z2 D2 D2 z2 D2 D2 | [DGB]2 [DGB]2 [CGB]2 c2- [G=Ac]2 [GA_d]2 | .[_G=A]6 z6 | x12 | %29
 z2 A2 A2 z2 =E2 E2 | [CFA]2 [C=EB]2 [CFc]2 z2 D2 [A,DF]2 | %31
 z2 C2 C2[K:bass] D,2 [G,C]2[K:treble] [G,C]2 | x12 | x12 | z2 E2 E2 z2 D2[K:bass] D2 | %35
 z2 B,2 B,2 [G,B,]6 |] %36
V:5
 x12 | x12 | x12 | x12 | x12 | x12 | x12 | z6 F,6 | x12 | x12 | x12 | z6[K:bass] B,,6 | x12 | x12 | %14
 x12 | z6[K:bass] B,,6[K:treble] | x12 | x12 | x12 | x4[K:bass] x8 | x12 | x12 | x12 | %23
 z6[K:bass] F,,6[K:treble] | x12 | x12 | x12 | x12 | x12 | x12 | x12 | x6[K:bass] x4[K:treble] x2 | %32
 x12 | x12 | x10[K:bass] x2 | x12 |] %36

